Adwaita++/apps/scalable/yin-yang.svg

<svg fill="none" height="128" viewBox="0 0 128 128" width="128" xmlns="http://www.w3.org/2000/svg">
  <path d="m64.0001 119c30.3756 0 54.9999-24.6244 54.9999-55 0-30.3757-24.6243-55-54.9999-55-30.3758 0-55.0001 24.6243-55.0001 55 0 30.3756 24.6243 55 55.0001 55z" fill="#f6f5f4"/>
  <path clip-rule="evenodd" d="m64.0001 117c29.271 0 52.9999-23.7289 52.9999-53s-23.7289-53-52.9999-53c-29.2713 0-53.0001 23.7289-53.0001 53s23.7288 53 53.0001 53zm54.9999-53c0 30.3756-24.6243 55-54.9999 55-30.3758 0-55.0001-24.6244-55.0001-55 0-30.3757 24.6243-55 55.0001-55 30.3756 0 54.9999 24.6243 54.9999 55z" fill="#f66151" fill-rule="evenodd"/>
  <path d="m63.898 108.5c24.3005 0 44-19.9234 44-44.5 0-24.5767-19.6995-44.5-44-44.5-24.3007 0-44.0002 19.9233-44.0002 44.5 0 24.5766 19.6995 44.5 44.0002 44.5z" fill="#a51d2d"/>
  <path d="m63.898 108.5c24.3005 0 44-19.9234 44-44.5 0-24.5767-19.6995-44.5-44-44.5-28.398 1.4194-29.6758 43.5438 0 44.5 27.5968.8895 0 26.4153 0 43.341z" fill="#1a5fb4" opacity=".7"/>
  <path d="m63.898 107.5c24.3005 0 44-19.6995 44-44 0-24.3006-19.6995-44-44-44-24.3007 0-44.0002 19.6994-44.0002 44 0 24.3005 19.6995 44 44.0002 44z" fill="#e01b24"/>
  <path d="m63.898 107.5c24.3005 0 44-19.6995 44-44 0-24.3006-19.6995-44-44-44-28.398 1.4035-29.6758 43.0545 0 44 28.852.9195 31.352 42.903 0 44z" fill="#1a5fb4" opacity=".6"/>
  <path d="m64 51.6535c5.5228 0 10-4.4771 10-10 0-5.5228-4.4772-10-10-10s-10 4.4772-10 10c0 5.5229 4.4772 10 10 10z" fill="#e01b24"/>
  <path d="m64 96.1535c5.5228 0 10-4.4771 10-10 0-5.5228-4.4772-10-10-10s-10 4.4772-10 10c0 5.5229 4.4772 10 10 10z" fill="#1a5fb4" opacity=".6"/>
</svg>

<svg width="128" height="128" viewBox="0 0 128 128" fill="none" xmlns="http://www.w3.org/2000/svg">
<path d="M64.0001 119C94.3757 119 119 94.3756 119 64C119 33.6243 94.3757 9 64.0001 9C33.6243 9 9 33.6243 9 64C9 94.3756 33.6243 119 64.0001 119V119Z" fill="url(#paint0_linear)"/>
<path fill-rule="evenodd" clip-rule="evenodd" d="M64.0001 117C93.2711 117 117 93.2711 117 64C117 34.7289 93.2711 11 64.0001 11C34.7288 11 11 34.7289 11 64C11 93.2711 34.7288 117 64.0001 117ZM119 64C119 94.3756 94.3757 119 64.0001 119C33.6243 119 9 94.3756 9 64C9 33.6243 33.6243 9 64.0001 9C94.3757 9 119 33.6243 119 64Z" fill="url(#paint1_linear)"/>
<path d="M63.898 108.5C88.1985 108.5 107.898 88.5766 107.898 64C107.898 39.4233 88.1985 19.5 63.898 19.5C39.5973 19.5 19.8978 39.4233 19.8978 64C19.8978 88.5766 39.5973 108.5 63.898 108.5V108.5Z" fill="url(#paint2_linear)"/>
<path opacity="0.7" d="M63.898 108.5C88.1985 108.5 107.898 88.5766 107.898 64C107.898 39.4233 88.1985 19.5 63.898 19.5C35.5 20.9194 34.2222 63.0438 63.898 64C91.4948 64.8895 63.898 90.4153 63.898 107.341C63.898 107.794 63.898 108.169 63.898 108.5Z" fill="#1A5FB4"/>
<path d="M63.898 107.5C88.1985 107.5 107.898 87.8005 107.898 63.5C107.898 39.1994 88.1985 19.5 63.898 19.5C39.5973 19.5 19.8978 39.1994 19.8978 63.5C19.8978 87.8005 39.5973 107.5 63.898 107.5V107.5Z" fill="url(#paint3_linear)"/>
<path opacity="0.6" d="M63.898 107.5C88.1985 107.5 107.898 87.8005 107.898 63.5C107.898 39.1994 88.1985 19.5 63.898 19.5C35.5 20.9035 34.2222 62.5545 63.898 63.5C92.75 64.4195 95.25 106.403 63.898 107.5V107.5Z" fill="#1A5FB4"/>
<path d="M64 51.6535C69.5228 51.6535 74 47.1764 74 41.6535C74 36.1307 69.5228 31.6535 64 31.6535C58.4772 31.6535 54 36.1307 54 41.6535C54 47.1764 58.4772 51.6535 64 51.6535Z" fill="url(#paint4_linear)"/>
<path opacity="0.6" d="M64 96.1535C69.5228 96.1535 74 91.6764 74 86.1535C74 80.6307 69.5228 76.1535 64 76.1535C58.4772 76.1535 54 80.6307 54 86.1535C54 91.6764 58.4772 96.1535 64 96.1535Z" fill="#1A5FB4"/>
<defs>
<linearGradient id="paint0_linear" x1="9" y1="64" x2="119" y2="64" gradientUnits="userSpaceOnUse">
<stop stop-color="#F6F5F4"/>
</linearGradient>
<linearGradient id="paint1_linear" x1="9" y1="64" x2="119" y2="64" gradientUnits="userSpaceOnUse">
<stop stop-color="#F66151"/>
</linearGradient>
<linearGradient id="paint2_linear" x1="19.8978" y1="64" x2="107.898" y2="64" gradientUnits="userSpaceOnUse">
<stop stop-color="#A51D2D"/>
</linearGradient>
<linearGradient id="paint3_linear" x1="19.8978" y1="63.5" x2="107.898" y2="63.5" gradientUnits="userSpaceOnUse">
<stop stop-color="#E01B24"/>
</linearGradient>
<linearGradient id="paint4_linear" x1="54" y1="41.6535" x2="74" y2="41.6535" gradientUnits="userSpaceOnUse">
<stop stop-color="#E01B24"/>
</linearGradient>
</defs>
</svg>
